X:73
T:The Fair Maid of Whickham
Z:Jack Campin, http://www.campin.me.uk/
S:Northumbrian Minstrelsy
M:6/8
L:1/8
K:G
g|G2G GAB|cdc TB3|cBc Adc|BGG  G2
g|G2G GAB|cdc TB3|cBc Adc|BGG  G2:|
B|cec BdB|A2A F2F|G2G GAB|cdc TB3 |
  cec BdB|AcA F2f|gfg ABc|BGG  G2:|

